X: 106
T: Miss Hope of Pinkie House's Strathspey
R: strathspey
Q: "Slowish"
B: William Shepherd "1st Collection" 1793 p.10 #6
F: http://imslp.org/wiki/File:PMLP73094-Shepherd_Collections_HMT.pdf
C: William Shepherd (17??-1812)
Z: 2012 John Chambers <jc:trillian.mit.edu>
M: C
L: 1/16
K: D
B2 |\
A3FD3F d3AB3G | A3FD3F Ag3Tf2e2 |\
[1 d3FD3F Ad3Fd3 | E3=cG3c E=FGE =C2 :|
[2 d3fc3d B3dF3d | G3BF3d (G=F).E.D =C2 |: A2 |\
dd3f3d a3d fgaf | dd3f3d (fg).a.g f3d |
[1 A3df3d a3df3d | E3=cG3c E=FGE =C2 :|\
[2 g3bf3a d3AF3A | G3BF3d (G=F).E.D =C2 |]
